packages/icons/src/components/Icon/assets/small-outline/id.svg

<svg width="16" height="16" viewBox="0 0 16 16" fill="none" xmlns="http://www.w3.org/2000/svg">
<path fill-rule="evenodd" clip-rule="evenodd" d="M0.800049 4.52948C0.800049 3.35335 1.75349 2.3999 2.92963 2.3999H13.0705C14.2466 2.3999 15.2 3.35335 15.2 4.52948V11.6281C15.2 12.8042 14.2466 13.7576 13.0705 13.7576H2.92963C1.75349 13.7576 0.800049 12.8042 0.800049 11.6281V4.52948ZM2.92963 3.6168C2.42557 3.6168 2.01695 4.02542 2.01695 4.52948V11.6281C2.01695 12.1321 2.42557 12.5407 2.92963 12.5407H13.0705C13.5745 12.5407 13.9831 12.1321 13.9831 11.6281V4.52948C13.9831 4.02542 13.5745 3.6168 13.0705 3.6168H2.92963ZM5.71836 5.64497C5.35432 5.64497 5.0592 5.94009 5.0592 6.30413C5.0592 6.66817 5.35432 6.96328 5.71836 6.96328C6.0824 6.96328 6.37751 6.66817 6.37751 6.30413C6.37751 5.94009 6.0824 5.64497 5.71836 5.64497ZM3.8423 6.30413C3.8423 5.26801 4.68224 4.42807 5.71836 4.42807C6.75448 4.42807 7.59441 5.26801 7.59441 6.30413C7.59441 7.34024 6.75448 8.18018 5.71836 8.18018C4.68224 8.18018 3.8423 7.34024 3.8423 6.30413ZM9.41977 6.05061C9.41977 5.71457 9.69218 5.44216 10.0282 5.44216H12.5634C12.8995 5.44216 13.1719 5.71457 13.1719 6.05061C13.1719 6.38664 12.8995 6.65906 12.5634 6.65906H10.0282C9.69218 6.65906 9.41977 6.38664 9.41977 6.05061ZM9.41977 8.07878C9.41977 7.74274 9.69218 7.47032 10.0282 7.47032H12.5634C12.8995 7.47032 13.1719 7.74274 13.1719 8.07878C13.1719 8.41481 12.8995 8.68723 12.5634 8.68723H10.0282C9.69218 8.68723 9.41977 8.41481 9.41977 8.07878ZM4.43539 10.3001C4.83724 10.4378 5.26861 10.5126 5.71825 10.5126C6.1679 10.5126 6.59926 10.4378 7.00111 10.3001C6.69387 9.93373 6.23281 9.70131 5.71825 9.70131C5.20369 9.70131 4.74263 9.93373 4.43539 10.3001ZM3.00467 10.3781C3.41028 9.27378 4.47131 8.48441 5.71825 8.48441C6.96519 8.48441 8.02622 9.27378 8.43184 10.3781C8.53659 10.6633 8.41491 10.982 8.14676 11.1249C7.42203 11.5109 6.59476 11.7295 5.71825 11.7295C4.84174 11.7295 4.01447 11.5109 3.28974 11.1249C3.02159 10.982 2.89991 10.6633 3.00467 10.3781ZM9.41977 10.1069C9.41977 9.77091 9.69218 9.49849 10.0282 9.49849H12.5634C12.8995 9.49849 13.1719 9.77091 13.1719 10.1069C13.1719 10.443 12.8995 10.7154 12.5634 10.7154H10.0282C9.69218 10.7154 9.41977 10.443 9.41977 10.1069Z" fill="black"/>
</svg>

<svg xmlns="http://www.w3.org/2000/svg" width="16" height="16" fill="none" viewBox="0 0 16 16">
    <path d="M.8 4.53A2.13 2.13 0 0 1 2.93 2.4h10.14a2.13 2.13 0 0 1 2.13 2.13v7.098a2.13 2.13 0 0 1-2.13 2.13H2.93a2.13 2.13 0 0 1-2.13-2.13zm2.13-.913a.913.913 0 0 0-.913.912v7.1c0 .503.409.912.913.912h10.14a.913.913 0 0 0 .913-.913V4.53a.913.913 0 0 0-.913-.912zm2.788 2.028a.66.66 0 1 0 0 1.318.66.66 0 0 0 0-1.318m-1.876.66a1.876 1.876 0 1 1 3.752 0 1.876 1.876 0 0 1-3.752 0M9.42 6.05c0-.336.272-.609.608-.609h2.535a.608.608 0 1 1 0 1.217h-2.535a.61.61 0 0 1-.608-.608m0 2.028c0-.336.272-.609.608-.609h2.535a.608.608 0 1 1 0 1.217h-2.535a.61.61 0 0 1-.608-.608M4.435 10.3a4 4 0 0 0 1.283.213c.45 0 .881-.075 1.283-.213a1.67 1.67 0 0 0-2.566 0m-1.43.078a2.891 2.891 0 0 1 5.427 0 .61.61 0 0 1-.285.747 5.15 5.15 0 0 1-2.429.604 5.15 5.15 0 0 1-2.428-.604.61.61 0 0 1-.285-.747m6.415-.271c0-.336.272-.609.608-.609h2.535a.608.608 0 1 1 0 1.217h-2.535a.61.61 0 0 1-.608-.608" clip-rule="evenodd"/>
</svg>
